X:1996
T:\'Ecossaise
T:Op. 18 no. 4
C:Franz Schubert
R:Ecossaise
Z:Transcribed by Frank Nordberg - http://www.musicaviva.com
F:http://abc.musicaviva.com/tunes/schubert-franz/schubert-op8-4.abc
V:1 Program 1 0 %Piano
V:2 Program 1 0 bass %Piano
M:2/4
L:1/8
K:G
V:1
b2ag|g2fe|[B2d2][G2B2]|[B4d4]|
V:2
[G,4B,4D4]|[G,4C4E4]|[G,2B,2D2][G,2B,2]|[G,4B,4D4]|
V:1
^cdef|gabc'|d'dd'd|g2z2|
V:2
[D,4F,4A,4C4]|[D,4G,4B,4]|[D,2F,2A,2C2][D,2F,2A,2C2]|[G,2B,2]z2|
V:1
bBbB|gBeB|aAaA|fAdA|
V:2
[B,2^D2F2A2][B,2D2F2A2]|[E4G4]|[A,2^C2E2G2][A,2C2E2G2]|[D4F4]|
V:1
^cdef|gabc'|d'dd'd|g2z2|
V:2
[D,4F,2A,4C4]|[D,4G,4B,4]|[D,2F,2A,2C2][D,2F,2A,2C2]|[G,2B,2]z2|
W:
W:
W:  From Musica Viva - http://www.musicaviva.com
W:  the Internet center for free sheet music downloads.


